X:1
T:Alma, 98.98
T:Alma, 98.98
T:Lyman Foster Brackett (1852-1937)
T:Public Domain Courtesy of the Cyber Hymnal™
C:Lyman Foster Brackett (1852-1937)
Z:Public Domain
Z:Courtesy of the Cyber Hymnal™
%%score ( 1 2 ) ( 3 4 )
L:1/8
M:3/4
K:Ab
V:1 treble 
V:2 treble 
V:3 bass 
V:4 bass 
V:1
 E2 | [Ec]4 [CE]2 | (F2 A2) [FB]2 | [Ec]4 E2 | [DF]2 [DA]2 [DB]2 | c4 [Ec]2 | (e2 B2) (cA) | %7
 F4 z2 B2 | E4 E2 | [Ec]4 E2 | (F2 A2) [FB]2 | c4 [_Ge]2 | [_Ge]2 [Fd]2 [DF]2 | [CE]4 [EA]2 | %14
 (G2 c2) [DB]2 | A4 [B,A]2 | [CA]4 |] %17
V:2
 E2 | x6 | D4 x2 | x4 E2 | x6 | (C2 E2) x2 | E4 E2 | E2 =D4 x2 | E4 E2 | x4 E2 | D4 x2 | %11
 (E3 F) x2 | x6 | x6 | E4 x2 | (C2 D2) x2 | x4 |] %17
V:3
 E,2 | (E,2 A,2) [A,,A,]2 | (A,2 F,2) [D,A,]2 | A,4 [C,A,]2 | [D,A,]2 [F,A,]2 [E,G,]2 | A,4 A,2 | %6
 [G,B,]4 (A,C) | B,4 [B,,A,]2 x2 | [E,G,]4 E,2 | (E,2 A,2) [C,A,]2 | A,4 [D,A,]2 | A,4 [C,A,]2 | %12
 [D,A,]2 [D,D]2 [D,A,]2 | [E,A,]4 [E,C]2 | (B,2 F,2) [E,G,]2 | (A,2 F,2) [D,_F,]2 | [A,,E,]4 |] %17
V:4
 E,2 | A,,4 x2 | D,4 x2 | A,4 x2 | x6 | A,4 A,2 | x4 A,2 | B,4 x4 | x4 E,2 | A,,4 x2 | %10
 (D,2 F,2) x2 | A,4 x2 | x6 | x6 | E,4 x2 | A,,4 x2 | x4 |] %17

